outputs/icons/general/video_off_round.svg

<svg xmlns="http://www.w3.org/2000/svg" width="1200" height="1200" fill="none"><path fill="#000" fill-rule="evenodd" d="M898.43 223.544c21.12-25.288 17.745-62.913-7.545-84.036s-62.915-17.746-84.035 7.544l-87.045 104.21H155.554c-30.554 0-55.554 25-55.554 55.555v555.558c0 30.555 25 55.555 55.554 55.555h7.422l-24.732 29.61c-21.123 25.29-17.749 62.915 7.544 84.035 25.288 21.125 62.916 17.745 84.04-7.545zM255.78 806.815 627 362.373H211.109v444.442z"/><path fill="#000" d="M766.67 806.815H547.13L454.328 917.93h367.897c30.55 0 55.55-25 55.55-55.555V667.93l179.545 179.545c15.75 15.745 42.68 4.595 42.68-17.68V339.394c0-22.272-26.93-33.427-42.68-17.678L877.775 501.26v-90.308L766.67 543.975z"/></svg>

<svg width="1200" height="1200" viewBox="0 0 1200 1200" fill="none" xmlns="http://www.w3.org/2000/svg"><path fill-rule="evenodd" d="M898.43 223.538C919.55 198.249 916.175 160.624 890.885 139.502C865.595 118.379 827.97 121.756 806.85 147.046L719.805 251.255H155.554C125 251.255 100 276.255 100 306.812V862.365C100 892.925 125 917.925 155.554 917.925H162.976L138.244 947.535C117.121 972.825 120.495 1010.45 145.788 1031.57C171.076 1052.695 208.704 1049.315 229.828 1024.025L898.43 223.538ZM255.78 806.81L627 362.367H211.109V806.81H255.78Z" fill="#1D1E23"/><path d="M766.67 806.81H547.13L454.328 917.925H822.225C852.775 917.925 877.775 892.925 877.775 862.365V667.925L1057.32 847.465C1073.07 863.215 1100 852.06 1100 829.79V339.388C1100 317.115 1073.07 305.962 1057.32 321.711L877.775 501.255V410.947L766.67 543.97V806.81Z" fill="#1D1E23"/></svg>
